; generated by PrusaSlicer 2.6.0+linux-x64-GTK3 on 2023-10-24 at 07:54:01 UTC

; 

; external perimeters extrusion width = 0.45mm
; perimeters extrusion width = 0.45mm
; infill extrusion width = 0.45mm
; solid infill extrusion width = 0.45mm
; top infill extrusion width = 0.40mm
; support material extrusion width = 0.35mm
; first layer extrusion width = 0.42mm

M190 S60 ; set bed temperature and wait for it to be reached
M104 S210 ; set temperature
;TYPE:Custom
G28 ; home all axes
G1 Z5 F5000 ; lift nozzle
M109 S210 ; set temperature and wait for it to be reached
G21 ; set units to millimeters
G90 ; use absolute coordinates
M82 ; use absolute distances for extrusion
G92 E0
; Filament gcode
M107
;LAYER_CHANGE
;Z:0.35
;HEIGHT:0.35
G1 Z.35 F7800
G1 E-2 F2400
G92 E0
G1 X84.236 Y67.219 F7800
G1 E2 F2400
;TYPE:Skirt/Brim
;WIDTH:0.42
G1 F1800
G1 X85.73 Y66.179 E2.09136
G1 X91.302 Y63.394 E2.40398
G1 X93.789 Y62.733 E2.53313
G1 X102.46 Y62.253 E2.96896
G1 X119.277 Y62.298 E3.81294
G1 X128.174 Y62.731 E4.25997
G1 X130.698 Y63.394 E4.39094
G1 X136.27 Y66.179 E4.70356
G1 X138.068 Y67.522 E4.81619
G1 X139.107 Y69.017 E4.90756
G1 X141.893 Y74.588 E5.22016
G1 X142.563 Y77.425 E5.36645
G1 X142.563 Y144.575 E8.73643
G1 X141.893 Y147.412 E8.88272
G1 X139.107 Y152.983 E9.19532
G1 X137.764 Y154.781 E9.30795
G1 X136.27 Y155.821 E9.39931
G1 X130.698 Y158.606 E9.71193
G1 X128.31 Y159.26 E9.83619
G1 X113.309 Y160.278 E10.59076
G1 X93.811 Y159.268 E11.5706
G1 X91.302 Y158.606 E11.70083
G1 X85.73 Y155.821 E12.01345
G1 X83.932 Y154.478 E12.12608
G1 X82.893 Y152.983 E12.21745
G1 X80.107 Y147.412 E12.53005
G1 X79.437 Y144.575 E12.67634
G1 X79.437 Y77.425 E16.04632
G1 X80.107 Y74.588 E16.19261
G1 X82.893 Y69.017 E16.50521
G1 X84.2 Y67.267 E16.61483
G1 E14.61483 F2400
G92 E0
G1 X100.004 Y71.873 F7800
G1 E2 F2400
;TYPE:Support material interface
;WIDTH:0.35
G1 F1800
G1 X100.004 Y77.573 E2.228
G1 X100.289 Y77.573 E2.2394
G1 X100.289 Y72.001 E2.46228
G1 X100.575 Y72.001 E2.47372
G1 X100.575 Y77.573 E2.6966
G1 X100.86 Y77.573 E2.708
G1 X100.86 Y72.001 E2.93088
G1 X101.146 Y72.001 E2.94232
G1 X101.146 Y77.573 E3.1652
G1 X101.432 Y77.573 E3.17664
G1 X101.432 Y72.001 E3.39952
G1 X101.717 Y72.001 E3.41092
G1 X101.717 Y77.573 E3.6338
G1 X102.003 Y77.573 E3.64524
G1 X102.003 Y72.001 E3.86812
G1 X102.289 Y72.001 E3.87956
G1 X102.289 Y77.701 E4.10756
G1 E2.10756 F2400
G92 E0
G1 X107.361 Y74.888 F7800
G1 E2 F2400
;TYPE:Support material
;WIDTH:0.42
G1 F1800
G1 X106.015 Y75.121 E2.06855
G1 X106.015 Y147.621 E5.70703
G1 X107.362 Y147.868 E5.77576
G1 X107.306 Y150.721 E5.91897
G1 X105.681 Y150.419 E6.00192
G1 X105.628 Y149.623 E6.04196
G1 X105.27 Y149.588 E6.06001
G1 X105.192 Y149.891 E6.07571
G1 X104.769 Y149.782 E6.09763
G1 X104.68 Y149.672 E6.10473
G1 X104.625 Y148.349 E6.17118
G1 X104.643 Y147.612 E6.20818
G1 X104.654 Y75.583 E9.82302
G1 X104.617 Y74.286 E9.88814
G1 X104.683 Y72.331 E9.98631
G1 X104.768 Y72.221 E9.99329
G1 X105.213 Y72.088 E10.0166
G1 X105.265 Y72.373 E10.03114
G1 X105.639 Y72.347 E10.04995
G1 X105.681 Y71.581 E10.08845
G1 X107.306 Y71.279 E10.1714
G1 X107.361 Y74.836 E10.34993
G1 E8.34993 F2400
G92 E0
G1 X105.067 Y147.842 F7800
G1 E2 F2400
G1 F1800
G1 X105.584 Y147.46 E2.03226
G1 X105.584 Y148.159 E2.06734
G1 X105.483 Y148.342 E2.07783
G1 X105.049 Y148.568 E2.10239
G1 X105.066 Y147.894 E2.13623
G1 E.13623 F2400
G92 E0
G1 X106.785 Y150.466 F7800
G1 E2 F2400
G1 F1800
G1 X106.785 Y148.078 E2.11984
G1 X106.401 Y148.007 E2.13944
G1 X106.401 Y150.237 E2.25135
G1 X106.018 Y150.166 E2.2709
G1 X106.018 Y147.937 E2.38276
G1 X105.895 Y147.914 E2.38904
G1 X105.895 Y148.239 E2.40535
G1 X105.71 Y148.574 E2.42456
G1 X105.635 Y148.613 E2.4288
G1 X105.635 Y149.312 E2.46388
G1 X105.252 Y149.275 E2.48319
G1 X105.252 Y148.637 E2.51521
G1 E.51521 F2400
G92 E0
G1 X106.785 Y74.83 F7800
G1 E2 F2400
G1 F1800
G1 X106.785 Y71.691 E2.15753
G1 X106.401 Y71.763 E2.17714
G1 X106.401 Y74.739 E2.32649
G1 X106.018 Y74.806 E2.346
G1 X106.018 Y71.834 E2.49515
G1 X105.973 Y71.842 E2.49744
G1 X105.936 Y72.638 E2.53743
G1 X105.635 Y72.659 E2.55257
G1 X105.635 Y147.038 E6.28535
G1 X105.252 Y147.32 E6.30922
G1 X105.252 Y72.529 E10.06267
G1 E8.06267 F2400
G92 E0
G1 X102.29 Y71.648 F7800
G1 E2 F2400
G1 F1800
G1 X99.505 Y71.648 E2.13977
G1 X99.505 Y77.925 E2.45479
G1 X102.29 Y77.925 E2.59456
G1 X102.29 Y144.075 E5.91436
G1 X99.505 Y144.075 E6.05413
G1 X99.505 Y150.352 E6.36915
G1 X102.29 Y150.352 E6.50892
G1 X102.29 Y152.931 E6.63835
G1 X94.139 Y152.931 E7.04742
G1 X94.139 Y150.146 E7.18719
G1 X88.568 Y150.146 E7.46678
G1 X88.568 Y144.575 E7.74637
G1 X85.782 Y144.575 E7.88619
G1 X85.782 Y77.425 E11.25617
G1 X88.568 Y77.425 E11.39599
G1 X88.568 Y71.854 E11.67558
G1 X94.139 Y71.854 E11.95517
G1 X94.139 Y69.069 E12.09494
G1 X102.29 Y69.069 E12.50401
G1 X102.29 Y71.597 E12.63088
G1 E10.63088 F2400
G92 E0
G1 X101.803 Y152.776 F7800
G1 E2 F2400
G1 F1800
G1 X101.803 Y150.662 E2.10609
G1 X101.42 Y150.662 E2.12531
G1 X101.42 Y152.621 E2.22362
G1 X101.037 Y152.621 E2.24284
G1 X101.037 Y150.662 E2.34115
G1 X100.653 Y150.662 E2.36042
G1 X100.653 Y152.621 E2.45873
G1 X100.27 Y152.621 E2.47795
G1 X100.27 Y150.662 E2.57626
G1 X99.887 Y150.662 E2.59548
G1 X99.887 Y152.621 E2.69379
G1 X99.504 Y152.621 E2.71301
G1 X99.504 Y150.662 E2.81132
G1 X99.194 Y150.662 E2.82688
G1 X99.194 Y143.764 E3.17306
G1 X99.504 Y143.764 E3.18862
G1 X99.504 Y78.236 E6.4772
G1 X99.887 Y78.236 E6.49642
G1 X99.887 Y143.764 E9.785
G1 X100.27 Y143.764 E9.80422
G1 X100.27 Y78.236 E13.0928
G1 X100.653 Y78.236 E13.11202
G1 X100.653 Y143.764 E16.4006
G1 X101.037 Y143.764 E16.41987
G1 X101.037 Y78.236 E19.70845
G1 X101.42 Y78.236 E19.72767
G1 X101.42 Y143.764 E23.01625
G1 X101.803 Y143.764 E23.03547
G1 X101.803 Y78.081 E26.33183
G1 E24.33183 F2400
G92 E0
G1 X101.803 Y71.493 F7800
G1 E2 F2400
G1 F1800
G1 X101.803 Y69.379 E2.10609
G1 X101.42 Y69.379 E2.12531
G1 X101.42 Y71.338 E2.22362
G1 X101.037 Y71.338 E2.24284
G1 X101.037 Y69.379 E2.34115
G1 X100.653 Y69.379 E2.36042
G1 X100.653 Y71.338 E2.45873
G1 X100.27 Y71.338 E2.47795
G1 X100.27 Y69.379 E2.57626
G1 X99.887 Y69.379 E2.59548
G1 X99.887 Y71.338 E2.69379
G1 X99.504 Y71.338 E2.71301
G1 X99.504 Y69.379 E2.81132
G1 X99.12 Y69.379 E2.83059
G1 X99.12 Y152.621 E7.00817
G1 X98.737 Y152.621 E7.02739
G1 X98.737 Y69.379 E11.20497
G1 X98.354 Y69.379 E11.22419
G1 X98.354 Y152.621 E15.40177
G1 X97.971 Y152.621 E15.42099
G1 X97.971 Y69.379 E19.59857
G1 X97.588 Y69.379 E19.61779
G1 X97.588 Y152.621 E23.79537
G1 X97.204 Y152.621 E23.81464
G1 X97.204 Y69.379 E27.99222
G1 X96.821 Y69.379 E28.01144
G1 X96.821 Y152.621 E32.18902
G1 X96.438 Y152.621 E32.20824
G1 X96.438 Y69.379 E36.38582
G1 X96.055 Y69.379 E36.40504
G1 X96.055 Y152.621 E40.58262
G1 X95.672 Y152.621 E40.60184
G1 X95.672 Y69.379 E44.77942
G1 X95.288 Y69.379 E44.79869
G1 X95.288 Y152.621 E48.97627
G1 X94.905 Y152.621 E48.99549
G1 X94.905 Y69.379 E53.17307
G1 X94.522 Y69.379 E53.19229
G1 X94.522 Y152.621 E57.36987
G1 X94.45 Y152.621 E57.37348
G1 X94.45 Y149.835 E57.5133
G1 X94.139 Y149.835 E57.52891
G1 X94.139 Y72.165 E61.42685
G1 X93.756 Y72.165 E61.44607
G1 X93.756 Y149.835 E65.34401
G1 X93.372 Y149.835 E65.36328
G1 X93.372 Y72.165 E69.26122
G1 X92.989 Y72.165 E69.28044
G1 X92.989 Y149.835 E73.17838
G1 X92.606 Y149.835 E73.1976
G1 X92.606 Y72.165 E77.09554
G1 X92.223 Y72.165 E77.11476
G1 X92.223 Y149.835 E81.0127
G1 X91.839 Y149.835 E81.03197
G1 X91.84 Y72.165 E84.92991
G1 X91.456 Y72.165 E84.94918
G1 X91.456 Y149.835 E88.84712
G1 X91.073 Y149.835 E88.86634
G1 X91.073 Y72.165 E92.76428
G1 X90.69 Y72.165 E92.7835
G1 X90.69 Y149.835 E96.68144
G1 X90.307 Y149.835 E96.70066
G1 X90.307 Y72.165 E100.5986
G1 X89.923 Y72.165 E100.61787
G1 X89.923 Y149.835 E104.51581
G1 X89.54 Y149.835 E104.53503
G1 X89.54 Y72.165 E108.43297
G1 X89.157 Y72.165 E108.45219
G1 X89.157 Y149.835 E112.35013
G1 X88.878 Y149.835 E112.36413
G1 X88.878 Y144.264 E112.64372
G1 X88.774 Y144.264 E112.64894
G1 X88.774 Y77.736 E115.98771
G1 X88.391 Y77.736 E116.00693
G1 X88.391 Y144.264 E119.3457
G1 X88.007 Y144.264 E119.36497
G1 X88.007 Y77.736 E122.70374
G1 X87.624 Y77.736 E122.72296
G1 X87.624 Y144.264 E126.06173
G1 X87.241 Y144.264 E126.08095
G1 X87.241 Y77.736 E129.41972
G1 X86.858 Y77.736 E129.43894
G1 X86.858 Y144.264 E132.77771
G1 X86.475 Y144.264 E132.79693
G1 X86.475 Y77.581 E136.14348
G1 E134.14348 F2400
G92 E0
G1 X108.001 Y70.952 F7800
G1 E2 F2400
;TYPE:Support material interface
;WIDTH:0.35
G1 F1800
G1 X108.001 Y69.216 E2.06944
G1 X107.715 Y69.216 E2.08088
G1 X107.715 Y70.846 E2.14608
G1 X107.43 Y70.897 E2.15766
G1 X107.43 Y69.216 E2.2249
G1 X107.144 Y69.216 E2.23634
G1 X107.144 Y70.95 E2.3057
G1 X106.858 Y71.003 E2.31733
G1 X106.858 Y69.216 E2.38881
G1 X106.573 Y69.216 E2.40021
G1 X106.573 Y71.056 E2.47381
G1 X106.287 Y71.109 E2.48544
G1 X106.287 Y69.216 E2.56116
G1 X106.002 Y69.216 E2.57256
G1 X106.002 Y71.162 E2.6504
G1 X105.716 Y71.215 E2.66203
G1 X105.716 Y69.216 E2.74199
G1 X105.43 Y69.216 E2.75343
G1 X105.43 Y71.331 E2.83803
G1 X105.327 Y71.449 E2.8443
G1 X105.315 Y71.707 E2.85463
G1 X105.145 Y71.74 E2.86156
G1 X105.145 Y69.216 E2.96252
G1 X104.859 Y69.216 E2.97396
G1 X104.859 Y71.826 E3.07836
G1 X104.574 Y71.911 E3.09026
G1 X104.574 Y69.216 E3.19806
G1 X104.288 Y69.216 E3.2095
G1 X104.288 Y152.784 E6.55222
G1 X104.002 Y152.784 E6.56366
G1 X104.002 Y69.216 E9.90638
G1 X103.717 Y69.216 E9.91778
G1 X103.717 Y152.784 E13.2605
G1 X103.431 Y152.784 E13.27194
G1 X103.431 Y69.216 E16.61466
G1 X103.145 Y69.216 E16.6261
G1 X103.145 Y152.784 E19.96882
G1 X102.86 Y152.784 E19.98022
G1 X102.86 Y69.216 E23.32294
G1 X102.643 Y69.216 E23.33162
G1 X102.643 Y72.001 E23.44302
G1 X102.574 Y72.001 E23.44578
G1 X102.574 Y149.999 E26.5657
G1 X102.289 Y149.999 E26.5771
G1 X102.289 Y144.427 E26.79998
G1 X102.003 Y144.427 E26.81142
G1 X102.003 Y149.999 E27.0343
G1 X101.717 Y149.999 E27.04574
G1 X101.717 Y144.427 E27.26862
G1 X101.432 Y144.427 E27.28002
G1 X101.432 Y149.999 E27.5029
G1 X101.146 Y149.999 E27.51434
G1 X101.146 Y144.427 E27.73722
G1 X100.86 Y144.427 E27.74866
G1 X100.86 Y149.999 E27.97154
G1 X100.575 Y149.999 E27.98294
G1 X100.575 Y144.427 E28.20582
G1 X100.289 Y144.427 E28.21726
G1 X100.289 Y149.999 E28.44014
G1 X100.004 Y149.999 E28.45154
G1 X100.004 Y144.299 E28.67954
G1 E26.67954 F2400
G92 E0
G1 X104.574 Y149.896 F7800
G1 E2 F2400
G1 F1800
G1 X104.574 Y152.784 E2.11552
G1 X104.859 Y152.784 E2.12692
G1 X104.859 Y150.17 E2.23148
G1 X105.145 Y150.244 E2.2433
G1 X105.145 Y152.784 E2.3449
G1 X105.43 Y152.784 E2.3563
G1 X105.43 Y150.669 E2.4409
G1 X105.497 Y150.744 E2.44492
G1 X105.716 Y150.785 E2.45383
G1 X105.716 Y152.784 E2.53379
G1 X106.002 Y152.784 E2.54523
G1 X106.002 Y150.838 E2.62307
G1 X106.287 Y150.891 E2.63467
G1 X106.287 Y152.784 E2.71039
G1 X106.573 Y152.784 E2.72183
G1 X106.573 Y150.944 E2.79543
G1 X106.858 Y150.997 E2.80703
G1 X106.858 Y152.784 E2.87851
G1 X107.144 Y152.784 E2.88995
G1 X107.144 Y151.05 E2.95931
G1 X107.43 Y151.103 E2.97094
G1 X107.43 Y152.784 E3.03818
G1 X107.715 Y152.784 E3.04958
G1 X107.715 Y151.154 E3.11478
G1 X108.001 Y151.177 E3.12626
G1 X108.001 Y152.913 E3.1957
G1 X107.343 Y153.548 F7800
;TYPE:Support material
;WIDTH:0.42
G1 F1800
G1 X105.758 Y153.137 E3.27788
G1 X107.449 Y153.137 E3.36274
G1 X107.356 Y153.498 E3.38145
G1 E1.38145 F2400
G92 E0
G1 X108.001 Y147.757 F7800
G1 E2 F2400
;TYPE:Support material interface
;WIDTH:0.35
G1 F1800
G1 X108.001 Y75.135 E4.90488
G1 X107.715 Y75.184 E4.91649
G1 X107.715 Y147.574 E7.81209
G1 X107.43 Y147.522 E7.82368
G1 X107.43 Y75.234 E10.7152
G1 X107.144 Y75.284 E10.72681
G1 X107.144 Y147.469 E13.61421
G1 X106.858 Y147.417 E13.62584
G1 X106.858 Y75.333 E16.5092
G1 X106.573 Y75.383 E16.52077
G1 X106.573 Y147.495 E19.40525
G1 E17.40525 F2400
G92 E0
G1 X113.999 Y147.757 F7800
G1 E2 F2400
G1 F1800
G1 X113.999 Y75.135 E4.90488
G1 X114.285 Y75.184 E4.91649
G1 X114.285 Y147.574 E7.81209
G1 X114.57 Y147.522 E7.82368
G1 X114.57 Y75.234 E10.7152
G1 X114.856 Y75.284 E10.72681
G1 X114.856 Y147.469 E13.61421
G1 X115.141 Y147.417 E13.6258
G1 X115.141 Y75.333 E16.50916
G1 X115.427 Y75.383 E16.52077
G1 X115.427 Y147.495 E19.40525
G1 E17.40525 F2400
G92 E0
G1 X113.999 Y151.028 F7800
G1 E2 F2400
G1 F1800
G1 X113.999 Y152.784 E2.07024
G1 X114.285 Y152.784 E2.08168
G1 X114.285 Y151.117 E2.14836
G1 X114.57 Y151.076 E2.15988
G1 X114.57 Y152.784 E2.2282
G1 X114.856 Y152.784 E2.23964
G1 X114.856 Y151.035 E2.3096
G1 X115.141 Y150.995 E2.32111
G1 X115.141 Y152.784 E2.39267
G1 X115.427 Y152.784 E2.40411
G1 X115.427 Y150.954 E2.47731
G1 X115.713 Y150.913 E2.48887
G1 X115.713 Y152.784 E2.56371
G1 X115.998 Y152.784 E2.57511
G1 X115.998 Y150.87 E2.65167
G1 X116.284 Y150.796 E2.66349
G1 X116.284 Y152.784 E2.74301
G1 X116.57 Y152.784 E2.75445
G1 X116.57 Y150.689 E2.83825
G1 X116.689 Y150.541 E2.84585
G1 X116.699 Y150.265 E2.8569
G1 X116.855 Y150.224 E2.86335
G1 X116.855 Y152.784 E2.96575
G1 X117.141 Y152.784 E2.97719
G1 X117.141 Y150.15 E3.08255
G1 X117.426 Y150.071 E3.09438
G1 X117.426 Y152.784 E3.2029
G1 X117.712 Y152.784 E3.21434
G1 X117.712 Y69.216 E6.55706
G1 X117.998 Y69.216 E6.5685
G1 X117.998 Y152.784 E9.91122
G1 X118.283 Y152.784 E9.92262
G1 X118.283 Y69.216 E13.26534
G1 X118.569 Y69.216 E13.27678
G1 X118.569 Y152.784 E16.6195
G1 X118.854 Y152.784 E16.6309
G1 X118.854 Y69.216 E19.97362
G1 X119.14 Y69.216 E19.98506
G1 X119.14 Y152.784 E23.32778
G1 X119.357 Y152.784 E23.33646
G1 X119.357 Y149.999 E23.44786
G1 X119.426 Y149.999 E23.45062
G1 X119.426 Y72.001 E26.57054
G1 X119.711 Y72.001 E26.58194
G1 X119.711 Y77.573 E26.80482
G1 X119.997 Y77.573 E26.81626
G1 X119.997 Y72.001 E27.03914
G1 X120.283 Y72.001 E27.05058
G1 X120.283 Y77.573 E27.27346
G1 X120.568 Y77.573 E27.28486
G1 X120.568 Y72.001 E27.50774
G1 X120.854 Y72.001 E27.51918
G1 X120.854 Y77.573 E27.74206
G1 X121.139 Y77.573 E27.75346
G1 X121.139 Y72.001 E27.97634
G1 X121.425 Y72.001 E27.98778
G1 X121.425 Y77.573 E28.21066
G1 X121.711 Y77.573 E28.2221
G1 X121.711 Y72.001 E28.44498
G1 X121.996 Y72.001 E28.45638
G1 X121.996 Y77.701 E28.68438
G1 E26.68438 F2400
G92 E0
G1 X117.426 Y72.139 F7800
G1 E2 F2400
G1 F1800
G1 X117.426 Y69.216 E2.11692
G1 X117.141 Y69.216 E2.12832
G1 X117.141 Y71.85 E2.23368
G1 X116.855 Y71.776 E2.2455
G1 X116.855 Y69.216 E2.3479
G1 X116.57 Y69.216 E2.3593
G1 X116.57 Y71.311 E2.4431
G1 X116.536 Y71.269 E2.44526
G1 X116.284 Y71.204 E2.45567
G1 X116.284 Y69.216 E2.53519
G1 X115.998 Y69.216 E2.54663
G1 X115.998 Y71.13 E2.62319
G1 X115.713 Y71.087 E2.63472
G1 X115.713 Y69.216 E2.70956
G1 X115.427 Y69.216 E2.721
G1 X115.427 Y71.046 E2.7942
G1 X115.141 Y71.005 E2.80576
G1 X115.141 Y69.216 E2.87732
G1 X114.856 Y69.216 E2.88872
G1 X114.856 Y70.965 E2.95868
G1 X114.57 Y70.924 E2.97024
G1 X114.57 Y69.216 E3.03856
G1 X114.285 Y69.216 E3.04996
G1 X114.285 Y70.883 E3.11664
G1 X113.999 Y70.842 E3.1282
G1 X113.999 Y69.087 E3.1984
G1 E1.1984 F2400
G92 E0
G1 X115.906 Y71.471 F7800
G1 E2 F2400
;TYPE:Support material
;WIDTH:0.42
G1 F1800
G1 X116.34 Y71.589 E2.02257
G1 X116.363 Y72.384 E2.06248
G1 X116.726 Y72.424 E2.08081
G1 X116.803 Y72.127 E2.09621
G1 X117.215 Y72.233 E2.11756
G1 X117.304 Y72.346 E2.12478
G1 X117.358 Y74.361 E2.22594
G1 X117.342 Y75.38 E2.27709
G1 X116.919 Y75.389 E2.29832
G1 X116.923 Y75.805 E2.3192
G1 X117.346 Y75.805 E2.34043
G1 X117.337 Y147.699 E5.9485
G1 X117.356 Y148.34 E5.98068
G1 X117.308 Y149.654 E6.04667
G1 X117.219 Y149.765 E6.05381
G1 X116.805 Y149.873 E6.07528
G1 X116.73 Y149.581 E6.09041
G1 X116.369 Y149.621 E6.10864
G1 X116.334 Y150.419 E6.14873
G1 X115.906 Y150.529 E6.17091
G1 X114.437 Y150.739 E6.24538
G1 X114.642 Y148.285 E6.36897
G1 X114.64 Y147.868 E6.3899
G1 X115.985 Y147.621 E6.45853
G1 X115.985 Y75.121 E10.09701
G1 X114.639 Y74.888 E10.16556
G1 X114.642 Y74.4 E10.19005
G1 X114.436 Y71.261 E10.34792
G1 X115.855 Y71.464 E10.41986
G1 X116.462 Y74.417 F7800
G1 F1800
G1 X116.933 Y74.213 E10.44562
G1 X116.909 Y74.958 E10.48303
G1 X116.376 Y75.235 E10.51318
G1 X116.373 Y74.59 E10.54555
G1 X116.438 Y74.463 E10.55271
G1 X116.748 Y149.423 F7800
G1 F1800
G1 X116.748 Y76.115 E14.23174
